X:1
T: Nellie's Jig
C:
R:Jig
Q:180
K:G
M:6/8
L:1/16
|:d2|g4d2 B2d2B2|G2D2G2 B2A2G2|A2c2A2 F2E2F2|D2F2A2 d2e2f2|
g4d2 B2d2B2|G2D2G2 B2A2G2|A2B2c2 d2e2f2|g2d2B2 G4:|
|:F2|G4g2 g2f2g2|d2e2d2 B2A2G2|A4a2 a2b2a2|f2e2d2 c2B2A2|
G4g2 g2f2g2|d2e2d2 B2A2G2|A2B2c2 d2e2f2|g2d2B2 G4:|
